X: 4
T: The Ballydesmond
R: polka
M: 2/4
L: 1/8
K: Ador
|: ed d2 | ed c2 | ed ^cd | ea a/b/a/g/ | ~|: ed c/^c/d | e^c d2 | ed c/^c/d | ea a>g | ~


Tune 298	Setting 22696

